X: 10640
T: Down By The Sally Gardens
R: reel
M: 4/4
K: Dmajor
|:(DE)|F2 ED E2 FA|B4 A2 dA|B2 AF E3 D|D6:|
A2|d2 cA B2 d2|c3 B A2 FA|B2 AFAB de|d6 (DE)|
F2 ED E2 FA|B4 A2 dA|B2 AFE3 D|D6||

